-- DJ Code 2
td2 x $ slow 2 $ struct s1d2 $ sound "^2Fol" # n "^2Buf" |+ n (run 77) # orbit "^2Xon" # speed "^2Rat" # djf "^2Ran" -- s1d2 -> "<[t ~ ~ ~]!15 t(<1 2>,32) [t ~ ~ ~]!15 [t t? t? t?] [t ~ ~ ~]!15 [[t t?] t? t? t?]>*[^d2]"

td2 x $ slow 2 $ struct s1d2 $ sound "^2Fol" # n "^2Buf" |+ n "0 1" # orbit "^2Xon" # speed "^2Rat" # djf "^2Ran"

td2 x $ slow 2 $ struct s1d2 $ sound "^2Fol" # n "^2Buf" |+ n "0 1 2" # orbit "^2Xon" # speed "^2Rat" # djf "^2Ran"

td2 x $ slow 2 $ struct s1d2 $ sound "^2Fol" # n "^2Buf" |+ n "0 1 2 3" # orbit "^2Xon" # speed "^2Rat" # djf "^2Ran"

td2 x $ slow 2 $ struct s1d2 $ sound "^2Fol" # n "^2Buf" |+ n "0 1 2 3 4" # orbit "^2Xon" # speed "^2Rat" # djf "^2Ran"

td2 x $ slow 2 $ struct s1d2 $ sound "^2Fol" # n "^2Buf" |+ n "0 1 2 3 10 10" # orbit "^2Xon" # speed "^2Rat" # djf "^2Ran"

td2 x $ slow 2 $ struct s1d2 $ sound "^2Fol" # n "^2Buf" |+ n "0 1 2 7 8 9 14 3 2 1 3 10 10" # orbit "^2Xon" # speed "^2Rat" # djf "^2Ran" -- |> speed "1 1.5 0.7" -- |* speed "^2Rat" -- |* djf "0.7 1.3"

td2 x $ slow 2 $ struct s1d2 $ sound "^2Fol" # n "^2Buf" |+ n (choose [0,2,3]) # orbit "^2Xon" # speed "^2Rat" # djf "^2Ran" -- Répétera l'aléatoire en fonction du chiffre de d2 - Random by Cycle ?

td2 x $ slow 2 $ struct s1d2 $ sound "^2Fol" # n "^2Buf" |+ n (cycleChoose [0,2,3]) # orbit "^2Xon" # speed "^2Rat" # djf "^2Ran" -- only picks once per cycle -- Identique

td2 x $ slow 2 $ struct s1d2 $ fast "^d2" $ sound "^2Fol" # n "^2Buf" |+ n (choose [0,2,3]) # orbit "^2Xon" # speed "^2Rat" # djf "^2Ran" -- Utilisation de fast pour avoir un aléatoire constant - Possibilité de jouer sur la répétition en modifiant d2

td2 x $ slow 2 $ struct s1d2 $ sound "^2Fol" # n (irand 77) # orbit "^2Xon" # speed "^2Rat" # djf "^2Ran" -- Aléatoire complet

td2 x $ slow 2 $ struct s1d2 $ fast "^d2" $ sound "^2Fol" # n (irand 77) # orbit "^2Xon" # speed "^2Rat" # djf "^2Ran" -- Aléatoire complet Rapide

td2 x $ slow 2 $ struct s1d2 $ sound "^2Fol" # n "^2Buf" |+ n (wchoose [(0,0.5),(2,0.35),(3,0.15)]) # orbit "^2Xon" # speed "^2Rat" # djf "^2Ran" -- Choose with weight

td2 x $ slow 2 $ struct s2d2 $ fast "^d2" $ sound "^2Fol" # n "^2Buf" |+ n (wchoose [(0,0.8),(2,0.15),(3,0.05)]) # orbit "^2Xon" # speed "^2Rat" # djf "^2Ran" -- Choose with weight 2

td2 x $ slow 8 $ struct s7d2 $ sound "^2Fol" # n "^2Buf" |+ n "6 2 3 5 0 8 7 87 2 23 7 78 3 5 6 2" # orbit "^2Xon" # speed "^2Rat" # djf "^2Ran"

td2 x $ chop "<[16 64 32]>*[^d2]" $ sound "^2Fol" # n (irand 200) # orbit "^2Xon" # speed "^2Rat" # djf "^2Ran"

td2 x $ jux rev $ chop "<4 8 12>*[^d2]" $ sound "^2Fol" # n (irand 200) # orbit "^2Xon" # speed "^2Rat" # djf "^2Ran"

td2 x $ jux rev $ chop "^d2" $ sound "^2Fol" # n (run 100) # orbit "^2Xon" # speed "^2Rat" # djf "^2Ran"

td2 x $ jux rev $ chop "^d2" $ sound "^2Fol" # n (irand 200) # orbit "^2Xon" # speed "^2Rat" # djf "^2Ran"

td2 x $ jux rev $ chop "^d2" $ fast 2 $ sound "^2Fol" # n (irand 200) # orbit "^2Xon" # speed "^2Rat" # djf "^2Ran"

td2 x $ jux rev $ chop "^d2" $ fast 4 $ sound "^2Fol" # n (irand 200) # orbit "^2Xon" # speed "^2Rat" # djf "^2Ran" -- # speed 1 |*| speed "1 2 0.5 2 1 1.5 0.7"

td2 x $ jux rev $ chop "^d2" $ fast 8 $ sound "^2Fol" # n (irand 200) # orbit "^2Xon" # speed "^2Rat" # djf "^2Ran"

td2 x $ striate "^d2" $ sound "^2Fol" # n (irand 200) # orbit "^2Xon" # speed "^2Rat" # djf "^2Ran" -- ???

td2 x $ slice "^d2" "[<0*8 0*2> 3*4 2 4] [4 .. 7]*[^d2]" $ sound "^2Fol" # n (irand 200) # orbit "^2Xon" # speed "^2Rat" # djf "^2Ran" -- # cps (slow 2 $ (sine * 0.5) + 0.2) -- error if O in d / tempo -- # cps (135/60/4)

td2 x $ slice "^d2" "7 6 5 4 3 2 1 0" $ sound "^2Fol" # n (irand 200) # orbit "^2Xon" # speed "^2Rat" # djf "^2Ran"

td2 x $ slice "^d2" "7 6 5 4 3 2 1 0" $ sound "^2Fol" # n (run 200) # orbit "^2Xon" # speed "^2Rat" # djf "^2Ran" -- New à partir de là

td2 x $ struct "[t ~ t/16 ~]" $ fast "[^d2]" $ sound "^2Fol" # orbit "^2Xon" # speed "^2Rat" # djf "^2Ran" -- different "^d2" ?

td2 x $ struct s2d2 $ sound "^2Fol" # n "^2Buf" # orbit "^2Xon" # speed "^2Rat" # djf "^2Ran" -- # n 0

td2 x $ echoWith 4 (1/("^d2")) (|* speed "0.9 1.1 0.7 0.8") $ struct s2d2 $ sound "^2Fol" # n "^2Buf" # orbit "^2Xon" # speed "^2Rat" # djf "^2Ran" -- # n 0

td2 x $ struct s3d2 $ sound "^2Fol" # n "^2Buf" # orbit "^2Xon" # speed "^2Rat" # djf "^2Ran" -- # n 0

td2 x $ struct s2d2 $ sound "^2Fol" # n (irand 200) # orbit "^2Xon" # speed "^2Rat" # djf "^2Ran"

td2 x $ struct s3d2 $ sound "^2Fol" # n (irand 200) # orbit "^2Xon" # speed "^2Rat" # djf "^2Ran"

td2 x $ struct s8d2 $ sound "^2Fol" # n "^2Buf" # orbit "^2Xon" # speed "^2Rat" # djf "^2Ran" -- # n 0

td2 x $ struct s8d2 $ sound "^2Fol" # n (irand 200) # orbit "^2Xon" # speed "^2Rat" # djf "^2Ran"

td2 x $ struct s9d2 $ sound "^2Fol" # n "^2Buf" # orbit "^2Xon" # speed "^2Rat" # djf "^2Ran"

td2 x $ struct s10d2 $ sound "^2Fol" # n "^2Buf" # orbit "^2Xon" # speed "^2Rat" # djf "^2Ran"

td2 x $ struct s11d2 $ sound "^2Fol" # n "^2Buf" # orbit "^2Xon" # speed "^2Rat" # djf "^2Ran"

td2 x $ struct "<[t*8 t*4] t*[^d2]>" $ sound "^2Fol" # n "^2Buf" # orbit "^2Xon" # speed "^2Rat" # djf "^2Ran" -- better not to automatize the struct

td2 x $ struct s9d2 $ sound "^2Fol" # n ("6 2 0 8"+"^2Buf") # orbit "^2Xon" # speed "^2Rat" # djf "^2Ran"

td2 x $ struct s9d2 $ sound "^2Fol" # n ("16 10 8"+"^2Buf") # orbit "^2Xon" # speed "^2Rat" # djf "^2Ran"

td2 x $ struct s9d2 $ sound "^2Fol" # n ("8 10 9 9 7"+"^2Buf") # orbit "^2Xon" # speed "^2Rat" # djf "^2Ran"

td2 x $ struct s9d2 $ sound "^2Fol" # n ("8 10 9 9 7"+"^2Buf") # distort "<0 0.03 0.05 0.1>" # orbit "^2Xon" # speed "^2Rat" # djf "^2Ran"

td2 x $ struct s9d2 $ sound "^2Fol" # n ("8 10 9 9 7 8 14 18 8"+"^2Buf") # orbit "^2Xon" # speed "^2Rat" # djf "^2Ran"

td2 x $ struct s9d2 $ sound "^2Fol" # n ("8 10 9 9 7 8 14 18 8"+"^2Buf") # legato "3" # orbit "^2Xon" # speed "^2Rat" # djf "^2Ran" -- legato & dud en conflit

td2 x $ struct s9d2 $ sound "^2Fol" # n ("8 20 8 14 6 7 8 7 18 6"+"^2Buf") # legato "3" # orbit "^2Xon" # speed "^2Rat" # djf "^2Ran" -- legato & dud en conflit

td2 x $ struct s9d2 $ sound "^2Fol" # n ("<8 20 8 14 6 7 8 7 18 6>"+"^2Buf") # legato "3" # orbit "^2Xon" # speed "^2Rat" # djf "^2Ran" -- legato & dud en conflit

td2 x $ struct s9d2 $ sound "^2Fol" # n ("<8 20 8 14 6 7 8 7 18 6 66>"+"^2Buf") # legato "3" # orbit "^2Xon" # speed "^2Rat" # djf "^2Ran" -- legato & dud en conflit

td2 x $ struct s9d2 $ sound "^2Fol" # n ("<8 20 8 14 6 7 8 7 18 6 6>"+"^2Buf") # legato "6" # orbit "^2Xon" # speed "^2Rat" # djf "^2Ran" -- legato & dud en conflit

td2 x $ struct s9d2 $ sound "^2Fol" # n ("<8 20 8 14 6 7 8 7 18 6 6>"+"^2Buf") # legato "6" # lpf (range 60 5000 $ perlin2With (cosine) (sine)) # orbit "^2Xon" # speed "^2Rat" # djf "^2Ran" -- legato & dud en conflit -- Why perlin2With give late messages ?

td2 x $ struct s9d2 $ sound "^2Fol" # n ("<16 10 8 14>"+"^2Buf") # orbit "^2Xon" # speed "^2Rat" # djf "^2Ran"

td2 x $ struct s9d2 $ sound "^2Fol" # n (irand 10) # orbit "^2Xon" # speed "^2Rat" # djf "^2Ran"

td2 x $ struct s9d2 $ sound "^2Fol" # n (irand 200) # orbit "^2Xon" # speed "^2Rat" # djf "^2Ran"

td2 x $ struct s9d2 $ sound "^2Fol" # n ("^2Buf" |+ (run 16)) # orbit "^2Xon" # speed "^2Rat" # djf "^2Ran"

td2 x $ struct s9d2 $ sound "^2Fol" # n (run (irand 10)) # orbit "^2Xon" # speed "^2Rat" # djf "^2Ran"

td2 x $ struct s9d2 $ sound "^2Fol" # n (run (irand 200)) # orbit "^2Xon" # speed "^2Rat" # djf "^2Ran"

td2 x $ struct s9d2 $ sound "^2Fol" # n (irand 100) # orbit "^2Xon" # speed "^2Rat" # djf "^2Ran"

td2 x $ struct s9d2 $ sound "^2Fol" # n ("^2Buf" |+ (run 10)) # orbit "^2Xon" # speed "^2Rat" # djf "^2Ran" -- (n (run 10) ~> "^2Buf") -- n (run 10)+"^2Buf"

td2 x $ struct s12d2 $ sound "^2Fol" # n (irand 18) # legato "7" # distort "<0 0.3 0.5 0.1>" # orbit "^2Xon" # speed "^2Rat" # djf "^2Ran" -- # lpf (range 60 5000 $ perlin2With (cosine) (sine)) -- (cosine*2) (sine*2))-- legato & dud en conflit

td2 x $ struct s12d2 $ sound "^2Fol" # n (irand 18) # legato "2" # distort "<0 0.3 0.2 0.1>" # lpf (range 60 5000 $ perlin2With (rand) (rand)) # orbit "^2Xon" # speed "^2Rat" # djf "^2Ran" -- (cosine*2) (sine*2)) -- legato & dud en conflit -- triggers a lot of late messages

td2 x $ struct s12d2 $ sound "^2Fol" # distort "<0 0.3 0.2 0.1>" # n "^2Buf" # orbit "^2Xon" # speed "^2Rat" # djf "^2Ran"

td2 x $ struct s12d2 $ sound "^2Fol" # crush "12 8 12 16" # n "^2Buf" # orbit "^2Xon" # speed "^2Rat" # djf "^2Ran"

td2 x $ struct s12d2 $ sound "^2Fol" # n "^2Buf" # orbit "^2Xon" # speed "^2Rat" # djf "^2Ran" -- # freeze "0.1" -- # freeze "0.1 0.2 0.4" -- makes crash the server ???

td2 x $ fast "^d2" $ slow 3 $ euclid "<3 5>" "[8 16]/4" $ sound "^2Fol" # n "^2Buf" # orbit "^2Xon" # speed "^2Rat" # djf "^2Ran" -- XXX -- XXX

td2 x $ fast "^d2" $ slow 3 $ euclid 2 5 $ sound "^2Fol" # n "^2Buf" # orbit "^2Xon" # speed "^2Rat" # djf "^2Ran" -- # n ("^2Buf" + (run 2))

td2 x $ fast "^d2" $ slow 3 $ euclid 3 4 $ sound "^2Fol" # n "^2Buf" # orbit "^2Xon" # speed "^2Rat" # djf "^2Ran" -- # n ("^2Buf" + (run 3))

td2 x $ fast "^d2" $ slow 3 $ euclid 3 5 $ sound "^2Fol" # n "^2Buf" # orbit "^2Xon" # speed "^2Rat" # djf "^2Ran" -- # n ("^2Buf" + (run 3))

td2 x $ fast "^d2" $ slow 3 $ euclid 3 7 $ sound "^2Fol" # n "^2Buf" # orbit "^2Xon" # speed "^2Rat" # djf "^2Ran" -- # n ("^2Buf" + (run 3))

td2 x $ fast "^d2" $ slow 3 $ euclid 3 8 $ sound "^2Fol" # n "^2Buf" # orbit "^2Xon" # speed "^2Rat" # djf "^2Ran" -- # n ("^2Buf" + (run 3))

td2 x $ fast "^d2" $ slow 3 $ euclid 4 7 $ sound "^2Fol" # n "^2Buf" # orbit "^2Xon" # speed "^2Rat" # djf "^2Ran" -- # n ("^2Buf" + (run 4))

td2 x $ fast "^d2" $ slow 3 $ euclid 4 9 $ sound "^2Fol" # n "^2Buf" # orbit "^2Xon" # speed "^2Rat" # djf "^2Ran" -- # n ("1 2 0 8"+"^2Buf")

td2 x $ fast "^d2" $ slow 3 $ euclid 4 11 $ sound "^2Fol" # n "^2Buf" # orbit "^2Xon" # speed "^2Rat" # djf "^2Ran" -- # n ("4 5 6 2 0 8"+"^2Buf")

td2 x $ fast "^d2" $ slow 3 $ euclid 5 6 $ sound "^2Fol" # n "^2Buf" # orbit "^2Xon" # speed "^2Rat" # djf "^2Ran" -- # n ("1 7 2 0 8"+"^2Buf")

td2 x $ fast "^d2" $ slow 3 $ euclid 5 7 $ sound "^2Fol" # n "^2Buf" # orbit "^2Xon" # speed "^2Rat" # djf "^2Ran" -- # n ("7 2 0 8"+"^2Buf")

td2 x $ fast "^d2" $ slow 3 $ euclid 5 8 $ sound "^2Fol" # n "^2Buf" # orbit "^2Xon" # speed "^2Rat" # djf "^2Ran" -- # n ("6 10 2 0 8"+"^2Buf")

td2 x $ fast "^d2" $ slow 3 $ euclid 5 9 $ sound "^2Fol" # n "^2Buf" # orbit "^2Xon" # speed "^2Rat" # djf "^2Ran" -- # n ("6 7 8"+"^2Buf")

td2 x $ fast "^d2" $ slow 3 $ euclid 5 11 $ sound "^2Fol" # n "^2Buf" # orbit "^2Xon" # speed "^2Rat" # djf "^2Ran" -- # n ("0 2 0 8"+"^2Buf")

td2 x $ fast "^d2" $ slow 3 $ euclid 5 12 $ sound "^2Fol" # n "^2Buf" # orbit "^2Xon" # speed "^2Rat" # djf "^2Ran" -- # n ("0 2 1 7 0 8"+"^2Buf")

td2 x $ fast "^d2" $ slow 3 $ euclid 5 16 $ sound "^2Fol" # n "^2Buf" # orbit "^2Xon" # speed "^2Rat" # djf "^2Ran" -- # n ("6 2 0 3 8"+"^2Buf")

td2 x $ fast "^d2" $ slow 3 $ euclid 7 8 $ sound "^2Fol" # n "^2Buf" # orbit "^2Xon" # speed "^2Rat" # djf "^2Ran" -- # n ("6 2 4 8"+"^2Buf")

td2 x $ fast "^d2" $ slow 3 $ euclid 5 8 $ sound "^2Fol" # n "^2Buf" # legato 100 # orbit "^2Xon" # speed "^2Rat" # djf "^2Ran" -- legato & dud en conflit

td2 x $ fast "^d2" $ slow 3 $ euclid 3 4 $ sound "^2Fol" # n "^2Buf" # orbit "^2Xon" # speed "^2Rat" # djf "^2Ran" -- # n (run 64)  -- Late messages from 57 XXX Interesting effect

td2 x $ fast "^d2" $ slow 3 $ euclid 3 5 $ sound "^2Fol" # n "^2Buf" # orbit "^2Xon" # speed "^2Rat" # djf "^2Ran" -- # n (run 8)

td2 x $ fast "^d2" $ slow 3 $ euclid 3 8 $ sound "^2Fol" # n "^2Buf" # orbit "^2Xon" # speed "^2Rat" # djf "^2Ran" -- # n (run "^d2")

td2 x $ fast "^d2" $ slow 3 $ euclid 5 8 $ sound "^2Fol" # n (irand 200) # orbit "^2Xon" # speed "^2Rat" # djf "^2Ran" --  |+ n (run 12)

td2 x $ chop "<[16 64 32]>*[^d2]" $ sound "^2Fol" # n (irand 200) # orbit "^2Xon" # speed "^2Rat" # djf "^2Ran"

td2 x $ jux rev $ chop "<4 8 12>*[^d2]" $ sound "^2Fol" # n (irand 200) # orbit "^2Xon" # speed "^2Rat" # djf "^2Ran"

td2 x $ jux rev $ chop "^d2" $ sound "^2Fol" # n (run 100) # orbit "^2Xon" # speed "^2Rat" # djf "^2Ran"

td2 x $ jux rev $ chop "^d2" $ sound "^2Fol" # n (irand 200) # orbit "^2Xon" # speed "^2Rat" # djf "^2Ran"

td2 x $ striate "^d2" $ sound "^2Fol" # n (irand 200) # orbit "^2Xon" # speed "^2Rat" # djf "^2Ran" -- ???

td2 x $ slice "^d2" "[<0*8 0*2> 3*4 2 4] [4 .. 7]*[^d2]" $ sound "^2Fol" # n (irand 200) # orbit "^2Xon" # speed "^2Rat" # djf "^2Ran"

td2 x $ slice "^d2" "7 6 5 4 3 2 1 0" $ sound "^2Fol" # n (irand 200) # orbit "^2Xon" # speed "^2Rat" # djf "^2Ran"

td2 x $ slice "^d2" "7 6 5 4 3 2 1 0" $ sound "^2Fol" # n (run 100) # orbit "^2Xon" # speed "^2Rat" # djf "^2Ran" -- from below New Additions from 64 to 79

td2 x $ slow 4 $ euclid 2 5 $ sound "[^2Fol]*[^d2]" # n ("^2Buf" + (run 2)) # orbit "^2Xon" # speed "^2Rat" # djf "^2Ran" -- same as 64 with different n & slow before euclid ...

td2 x $ slow 4 $ euclid 3 4 $ sound "[^2Fol]*[^d2]" # n ("^2Buf" + (run 3)) # orbit "^2Xon" # speed "^2Rat" # djf "^2Ran"

td2 x $ slow 4 $ euclid 3 5 $ sound "[^2Fol]*[^d2]" # n ("^2Buf" + (run 4)) # orbit "^2Xon" # speed "^2Rat" # djf "^2Ran"

td2 x $ slow 4 $ euclid 3 7 $ sound "[^2Fol]*[^d2]" # n ("^2Buf" + (run 6)) # orbit "^2Xon" # speed "^2Rat" # djf "^2Ran"

td2 x $ slow 4 $ euclid 3 8 $ sound "[^2Fol]*[^d2]" # n ("^2Buf" + (run 7)) # orbit "^2Xon" # speed "^2Rat" # djf "^2Ran"

td2 x $ slow 4 $ euclid 4 7 $ sound "[^2Fol]*[^d2]" # n ("^2Buf" + (run 77)) # orbit "^2Xon" # speed "^2Rat" # djf "^2Ran"

td2 x $ slow 4 $ euclid 4 7 $ sound "[^2Fol]*[^d2]" # n ("^2Buf" + (slow 3 $ range 1 12 sine)) # orbit "^2Xon" # speed "^2Rat" # djf "^2Ran"

td2 x $ slow 4 $ euclid 4 7 $ sound "[^2Fol]*[^d2]" # n ("^2Buf" + (slow 2 $ range 6 18 saw)) # orbit "^2Xon" # speed "^2Rat" # djf "^2Ran"

td2 x $ slow 4 $ euclid 4 7 $ sound "[^2Fol]*[^d2]" # n "^2Buf" |+ n (fast "1 0.5 2" (run 17)) # orbit "^2Xon" # speed "^2Rat" # djf "^2Ran"

td2 x $ slow 4 $ euclid 3 4 $ sound "[^2Fol]*[^d2]" # n "^2Buf" |+ n (run "^d2") # orbit "^2Xon" # speed "^2Rat" # djf "^2Ran"

td2 x $ slow 4 $ euclid 4 9 $ sound "[^2Fol]*[^d2]" # n ("1 2 0 8"+"^2Buf") # orbit "^2Xon" # speed "^2Rat" # djf "^2Ran"

td2 x $ slow 4 $ euclid 4 11 $ sound "[^2Fol]*[^d2]" # n ("4 5 6 2 0 8"+"^2Buf") # orbit "^2Xon" # speed "^2Rat" # djf "^2Ran"

td2 x $ slow 4 $ euclid 5 6 $ sound "[^2Fol]*[^d2]" # n ("1 7 2 0 8"+"^2Buf") # orbit "^2Xon" # speed "^2Rat" # djf "^2Ran"

td2 x $ slow 4 $ euclid 5 7 $ sound "[^2Fol]*[^d2]" # n ("7 2 0 8"+"^2Buf") # orbit "^2Xon" # speed "^2Rat" # djf "^2Ran"

td2 x $ slow 4 $ euclid 5 8 $ sound "[^2Fol]*[^d2]" # n ("6 10 2 0 8"+"^2Buf") # orbit "^2Xon" # speed "^2Rat" # djf "^2Ran"

td2 x $ slow 4 $ euclid 5 9 $ sound "[^2Fol]*[^d2]" # n ("6 7 8"+"^2Buf") # orbit "^2Xon" # speed "^2Rat" # djf "^2Ran"

td2 x $ slow 4 $ euclid 5 11 $ sound "[^2Fol]*[^d2]" # n ("0 2 0 8"+"^2Buf") # orbit "^2Xon" # speed "^2Rat" # djf "^2Ran"

td2 x $ slow 4 $ euclid 5 12 $ sound "[^2Fol]*[^d2]" # n ("0 2 1 7 0 8"+"^2Buf") # orbit "^2Xon" # speed "^2Rat" # djf "^2Ran"

td2 x $ slow 4 $ euclid 5 16 $ sound "[^2Fol]*[^d2]" # n ("6 2 0 3 8"+"^2Buf") # orbit "^2Xon" # speed "^2Rat" # djf "^2Ran"

td2 x $ slow 4 $ euclid 7 8 $ slow 4 $ sound "[^2Fol]*[^d2]" # n ("6 2 4 8"+"^2Buf") # orbit "^2Xon" # speed "^2Rat" # djf "^2Ran" -- same as 79 with different n & slow before euclid

td2 x $ euclid 2 5 $ slow 4 $ sound "[^2Fol]*[^d2]" # n ("^2Buf" + (run 2)) # orbit "^2Xon" # speed "^2Rat" # djf "^2Ran" -- same as 64 with different n & slow after euclid ...

td2 x $ euclid 3 4 $ slow 4 $ sound "[^2Fol]*[^d2]" # n ("^2Buf" + (run 3)) # orbit "^2Xon" # speed "^2Rat" # djf "^2Ran"

td2 x $ euclid 3 5 $ slow 4 $ sound "[^2Fol]*[^d2]" # n ("^2Buf" + (run 4)) # orbit "^2Xon" # speed "^2Rat" # djf "^2Ran"

td2 x $ euclid 3 7 $ slow 4 $ sound "[^2Fol]*[^d2]" # n ("^2Buf" + (run 6)) # orbit "^2Xon" # speed "^2Rat" # djf "^2Ran"

td2 x $ euclid 3 8 $ slow 4 $ sound "[^2Fol]*[^d2]" # n ("^2Buf" + (run 7)) # orbit "^2Xon" # speed "^2Rat" # djf "^2Ran"

td2 x $ euclid 4 7 $ slow 4 $ sound "[^2Fol]*[^d2]" # n ("^2Buf" + (run 77)) # orbit "^2Xon" # speed "^2Rat" # djf "^2Ran"

td2 x $ euclid 4 7 $ slow 4 $ sound "[^2Fol]*[^d2]" # n ("^2Buf" + (slow 3 $ range 1 12 sine)) # orbit "^2Xon" # speed "^2Rat" # djf "^2Ran"

td2 x $ euclid 4 7 $ slow 4 $ sound "[^2Fol]*[^d2]" # n ("^2Buf" + (slow 2 $ range 6 18 saw)) # orbit "^2Xon" # speed "^2Rat" # djf "^2Ran"

td2 x $ euclid 4 7 $ slow 4 $ sound "[^2Fol]*[^d2]" # n "^2Buf" |+ n (fast "1 0.5 2" (run 17)) # orbit "^2Xon" # speed "^2Rat" # djf "^2Ran"

td2 x $ euclid 3 4 $ slow 4 $ sound "[^2Fol]*[^d2]" # n "^2Buf" |+ n (run "^d2") # orbit "^2Xon" # speed "^2Rat" # djf "^2Ran"

td2 x $ euclid 4 9 $ slow 4 $ sound "[^2Fol]*[^d2]" # n ("1 2 0 8"+"^2Buf") # orbit "^2Xon" # speed "^2Rat" # djf "^2Ran"

td2 x $ euclid 4 11 $ slow 4 $ sound "[^2Fol]*[^d2]" # n ("4 5 6 2 0 8"+"^2Buf") # orbit "^2Xon" # speed "^2Rat" # djf "^2Ran"

td2 x $ euclid 5 6 $ slow 4 $ sound "[^2Fol]*[^d2]" # n ("1 7 2 0 8"+"^2Buf") # orbit "^2Xon" # speed "^2Rat" # djf "^2Ran"

td2 x $ euclid 5 7 $ slow 4 $ sound "[^2Fol]*[^d2]" # n ("7 2 0 8"+"^2Buf") # orbit "^2Xon" # speed "^2Rat" # djf "^2Ran"

td2 x $ euclid 5 8 $ slow 4 $ sound "[^2Fol]*[^d2]" # n ("6 10 2 0 8"+"^2Buf") # orbit "^2Xon" # speed "^2Rat" # djf "^2Ran"

td2 x $ euclid 5 9 $ slow 4 $ sound "[^2Fol]*[^d2]" # n ("6 7 8"+"^2Buf") # orbit "^2Xon" # speed "^2Rat" # djf "^2Ran"

td2 x $ euclid 5 11 $ slow 4 $ sound "[^2Fol]*[^d2]" # n ("0 2 0 8"+"^2Buf") # orbit "^2Xon" # speed "^2Rat" # djf "^2Ran"

td2 x $ euclid 5 12 $ slow 4 $ sound "[^2Fol]*[^d2]" # n ("0 2 1 7 0 8"+"^2Buf") # orbit "^2Xon" # speed "^2Rat" # djf "^2Ran"

td2 x $ euclid 5 16 $ slow 4 $ sound "[^2Fol]*[^d2]" # n ("6 2 0 3 8"+"^2Buf") # orbit "^2Xon" # speed "^2Rat" # djf "^2Ran"

td2 x $ euclid 7 8 $ slow 4 $ sound "[^2Fol]*[^d2]" # n ("6 2 4 8"+"^2Buf") # orbit "^2Xon" # speed "^2Rat" # djf "^2Ran" -- same as 79 with different n & slow after euclid

td2 x $ euclid "^d2" 64 $ slow 3 $ sound "^2Fol" # n "^2Buf" # orbit "^2Xon" # speed "^2Rat" # djf "^2Ran" -- NEW with t euclid

td2 x $ euclid "^d2" 64 $ slow 3 $ sound "^2Fol" # n "^2Buf" |+| n (run 2) # orbit "^2Xon" # speed "^2Rat" # djf "^2Ran"

td2 x $ euclid "^d2" 64 $ slow 3 $ sound "^2Fol" # n "^2Buf" |+| n (run 3) # orbit "^2Xon" # speed "^2Rat" # djf "^2Ran"

td2 x $ euclid "^d2" 64 $ slow 3 $ sound "^2Fol" # n "^2Buf" |+| n (run 5) # orbit "^2Xon" # speed "^2Rat" # djf "^2Ran"

td2 x $ euclid "^d2" 64 $ fast 2 $ sound "^2Fol" # n "^2Buf" |+ n (run 6) # orbit "^2Xon" # speed "^2Rat" # djf "^2Ran"

td2 x $ euclid "^d2" 64 $ slow 3 $ sound "^2Fol" # n "^2Buf" |+| n (run 7) # orbit "^2Xon" # speed "^2Rat" # djf "^2Ran"

td2 x $ euclid "^d2" 64 $ slow 3 $ sound "^2Fol" # n "^2Buf" |+| n (run 10) # orbit "^2Xon" # speed "^2Rat" # djf "^2Ran"

td2 x $ euclid "^d2" 64 $ slow 6 $ sound "[^2Fol]*[^d2]" # n "^2Buf" |+ n (run 12) # orbit "^2Xon" # speed "^2Rat" # djf "^2Ran"

td2 x $ euclid "^d2" 64 $ slow 3 $ sound "^2Fol" # n "^2Buf" |+| n (run "^d2") # orbit "^2Xon" # speed "^2Rat" # djf "^2Ran"

td2 x $ euclid "^d2" 64 $ slow 3 $ sound "^2Fol" # n "^2Buf" |+| n "<[1 2 3, 3 6 7 9*2, 16*2, 1 3]>" # orbit "^2Xon" # speed "^2Rat" # djf "^2Ran"

td2 x $ euclid "^d2" 64 $ slow 3 $ sound "^2Fol" # n "^2Buf" |+| n "<[1 2*2 7, 3*2 6, 7 9*2, 16*2, 1 7 9 11, 2 5 8, 2 5 8]>" # orbit "^2Xon" # speed "^2Rat" # djf "^2Ran"

td2 x $ slow 4 $ euclid "^d2" 64 $ sound "^2Fol" # n "^2Buf" # orbit "^2Xon" # speed "^2Rat" # djf "^2Ran"

td2 x $ slow 4 $ euclid "^d2" 64 $ sound "^2Fol" # n "^2Buf" |+| n "1 2 9" # orbit "^2Xon" # speed "^2Rat" # djf "^2Ran"

td2 x $ slow 4 $ euclid "^d2" 64 $ sound "^2Fol" # n "^2Buf" |+| n "1 2 3 4 6 7 10" # orbit "^2Xon" # speed "^2Rat" # djf "^2Ran"

td2 x $ slow 4 $ euclid "^d2" 64 $ sound "^2Fol" # n "^2Buf" |+| n "1 2 3 6 10 15 16 18 20" # orbit "^2Xon" # speed "^2Rat" # djf "^2Ran"

td2 x $ slow 4 $ euclid "^d2" 64 $ sound "^2Fol" # n "^2Buf" |+| n "[1 2 3, 3 6 7, 9*2, 1 3]" # orbit "^2Xon" # speed "^2Rat" # djf "^2Ran"

td2 x $ slow 4 $ euclid "^d2" 64 $ sound "^2Fol" # n "^2Buf" |+| n (run "^d2") # orbit "^2Xon" # speed "^2Rat" # djf "^2Ran"

td2 x $ slow 8 $ euclid "[^d2]" "[^d2]" $ sound "^2Fol" |+| n "[^1Buf]*[^d2]" |+| n (run 59) # orbit "^2Xon" # speed "^2Rat" # djf "^2Ran"
-- Error
td2 x $ euclid "[^d2]" "[^d2]" $ slow 8 $ sound "^2Fol" |+| n "[^1Buf]*[^d2]" |+| n (run 59) # orbit "^2Xon" # speed "^2Rat" # djf "^2Ran"

td2 x $ mask "[1 0 1 0 1 0 1 0]*2" $ sound "[^2Fol]*[^d2]" # n "^2Buf" |+ n (fmap ([0, 1, 2, 3]!!) (markovPat "[^d2]" 0 [ [ 0.1, 1.1, 0.9, 0.1 ], [ 0.9, 0.1, 1.1, 1.1 ], [ 0.5, 0.5, 0.05, 1 ], [ 0.5, 0.5, 0.75, 0.25 ] ] )) # orbit "^2Xon" # speed "^2Rat" # djf "^2Ran" -- with Markov & Masks XXX

td2 x $ mask "[1 0 0 0 1 0 1 0]*2" $ sound "[^2Fol]*[^d2]" # n "^2Buf" |+ n (fmap ([0, 2, 3, 4]!!) (markovPat "[^d2]" 0 [ [ 0.1, 1.1, 0.9, 0.1 ], [ 0.9, 0.1, 1.1, 1.1 ], [ 0.5, 0.5, 0.05, 1 ], [ 0.5, 0.5, 0.75, 0.25 ] ] )) # orbit "^2Xon" # speed "^2Rat" # djf "^2Ran"

td2 x $ mask "[1 1 0 1 0 1 1 0]*4" $ sound "[^2Fol]*[^d2]" # n "^2Buf" |+ n (fmap ([0, 1, 2, 3]!!) (markovPat "[^d2]" 0 [ [ 0.1, 1.1, 0.9, 0.1 ], [ 0.9, 0.1, 1.1, 1.1 ], [ 0.5, 0.5, 0.05, 1 ], [ 0.5, 0.5, 0.75, 0.25 ] ] )) # orbit "^2Xon" # speed "^2Rat" # djf "^2Ran"

td2 x $ mask "[1 1 1 0 1 1 0 1]*3" $ sound "[^2Fol]*[^d2]" # n "^2Buf" |+ n (run 77) |+ n (fmap ([0, 2, 3, 4]!!) (markovPat "[^d2]" 0 [ [ 0.1, 1.1, 0.9, 0.1 ], [ 0.9, 0.1, 1.1, 1.1 ], [ 0.5, 0.5, 0.05, 1 ], [ 0.5, 0.5, 0.75, 0.25 ] ] )) # orbit "^2Xon" # speed "^2Rat" # djf "^2Ran"

td2 x $ mask "[1 1 1 0 1 1 0 1]/3" $ sound "[^2Fol]*[^d2]" # n "^2Buf" |+ n (run 10) |+ n (fmap ([0, 1, 2, 3]!!) (markovPat "[^d2]" 0 [ [ 0.1, 1.1, 0.9, 0.1 ], [ 0.9, 0.1, 1.1, 1.1 ], [ 0.5, 0.5, 0.05, 1 ], [ 0.5, 0.5, 0.75, 0.25 ] ] )) # orbit "^2Xon" # speed "^2Rat" # djf "^2Ran"

td2 x $ mask "[1 0 1 0 0 1 0 1]*2" $ sound "[^2Fol]*[^d2]" # n "^2Buf" |+ n (run 100) |+ n (fmap ([0, 1, 2, 3]!!) (markovPat "[^d2]" 0 [ [ 0.1, 1.1, 0.9, 0.1 ], [ 0.9, 0.1, 1.1, 1.1 ], [ 0.5, 0.5, 0.05, 1 ], [ 0.5, 0.5, 0.75, 0.25 ] ] )) # orbit "^2Xon" # speed "^2Rat" # djf "^2Ran" -- Adding of run on n

td2 x $ mask "[1 0 0 0 1 0 1 0]*[^d2]" $ sound "[^2Fol]*[^d2]" # n "^2Buf" |+ n (fmap ([0, 1, 2, 3]!!) (markovPat "[^d2]" 0 [ [ 0.1, 1.1, 0.9, 0.1 ], [ 0.9, 0.1, 1.1, 1.1 ], [ 0.5, 0.5, 0.05, 1 ], [ 0.5, 0.5, 0.75, 0.25 ] ] )) # orbit "^2Xon" # speed "^2Rat" # djf "^2Ran"

td2 x $ struct s1d2 $ sound "[^2Fol]" # n "^2Buf" |+ n (fmap ([0, 1, 2, 3]!!) (markovPat 16 0 [ [ 0.1, 1.1, 0.9, 0.1 ], [ 0.9, 0.1, 1.1, 1.1 ], [ 0.5, 0.5, 0.05, 1 ], [ 0.5, 0.5, 0.75, 0.25 ] ] )) # orbit "^2Xon" # speed "^2Rat" # djf "^2Ran" -- with Markov & struct XXX

td2 x $ struct s1d2 $ sound "[^2Fol]" # n "^2Buf" |+ n (fmap ([0, 1, 2, 3]!!) (markovPat "[^d2]" 0 [ [ 0.1, 1.1, 0.9, 0.1 ], [ 0.9, 0.1, 1.1, 1.1 ], [ 0.5, 0.5, 0.05, 1 ], [ 0.5, 0.5, 0.75, 0.25 ] ] )) # orbit "^2Xon" # speed "^2Rat" # djf "^2Ran" -- with Markov & struct XXX

td2 x $ sound "[^2Fol]*[^d2]" # n "^2Buf" |+ n (run 77) # orbit "^2Xon" # speed "^2Rat" # djf "^2Ran"
-- Section with Footworks
td2 x $ sound "[^2Fol]*[^d2]" # foo2 "<5 10>" 1 # n "^2Buf" |+ n (fast 3 (run "<4 8 12>")) # orbit "^2Xon" # speed "^2Rat" # djf "^2Ran"

td2 x $ sound "[^2Fol]*[^d2]" # foo2 "<10 25>" 1 # n "^2Buf" |+ n (run 7) # orbit "^2Xon" # speed "^2Rat" # djf "^2Ran"

td2 x $ sound "[^2Fol]*[^d2]" # foo2 "<7 6 12>" 1 # n "^2Buf" |+ n (run 20) # orbit "^2Xon" # speed "^2Rat" # djf "^2Ran"

td2 x $ sound "[^2Fol]*[^d2]" # foo2 "<3 10 7 4>" 1 # n "^2Buf" |+ n (run 77) # orbit "^2Xon" # speed "^2Rat" # djf "^2Ran"

td2 x $ sound "[^2Fol]*[^d2]" # foo2 "<0 5 17 18>" 1 # n "^2Buf" |+ n (fast 5 (run 16)) # orbit "^2Xon" # speed "^2Rat" # djf "^2Ran"

td2 x $ sound "[^2Fol]*[^d2]" # foo2 "<2 5 8 11>" 1 # n "^2Buf" |+ n (irand 16) # orbit "^2Xon" # speed "^2Rat" # djf "^2Ran"

td2 x $ sound "[^2Fol]*[^d2]" # foo2 "<1 4 6>" 1 # n "^2Buf" |+ n (irand 32) # orbit "^2Xon" # speed "^2Rat" # djf "^2Ran"

td2 x $ sound "[^2Fol]*[^d2]" # foo2 "<3 10 7>" 1 # n "^2Buf" |+ n (irand 77) # orbit "^2Xon" # speed "^2Rat" # djf "^2Ran"

td2 x $ sound "[^2Fol]*[^d2]" # foo2 (run "<3 6 9 7>") 2 # n "^2Buf" |+ n (run 32) # orbit "^2Xon" # speed "^2Rat" # djf "^2Ran"

td2 x $ sound "[^2Fol]*[^d2]" # foo2 (run "<1 3 5>") 1 # n "^2Buf" |+ n (fast "<2 5>" $ run 12) # orbit "^2Xon" # speed "^2Rat" # djf "^2Ran"

td2 x $ sound "[^2Fol]*[^d2]" # foo2 (irand 16) 1 # n "^2Buf" |+ n (run "<6 3 9>") # orbit "^2Xon" # speed "^2Rat" # djf "^2Ran"

td2 x $ sound "[^2Fol]*[^d2]" # foo2 (irand 24) 1 # n "^2Buf" |+ n (irand 77) # orbit "^2Xon" # speed "^2Rat" # djf "^2Ran"

td2 x $ sound "[^2Fol]*[^d2]" # foo2 "<3 9> <4 2>" 1 # n "^2Buf" |+ n (run "<5 10 3>") # orbit "^2Xon" # speed "^2Rat" # djf "^2Ran"

td2 x $ sound "[^2Fol]*[^d2]" # foo2 (randcat ["10 2", "6 4 11", "1 12 24 4","12 13 14 17"]) 1 # n "^2Buf" |+ n (fast 5 (run 16)) # orbit "^2Xon" # speed "^2Rat" # djf "^2Ran"

td2 x $ sound "[^2Fol]*[^d2]" # foo2 (randcat ["1 2", "3 5", "7 11 13"]) 1 # n "^2Buf" |+ n (fast 2 $ run 12) # orbit "^2Xon" # speed "^2Rat" # djf "^2Ran"

td2 x $ sound "[^2Fol]*[^d2]" # foo2 (randcat ["2 4 6", "1 8", "5"]) 1 # n "^2Buf" |+ n (fast 4 $ run 10) # orbit "^2Xon" # speed "^2Rat" # djf "^2Ran"

td2 x $ sound "[^2Fol]*[^d2]" # foo2 (randcat [1, 7, 23, 24]) 1 # n "^2Buf" |+ n (fast 5 (run 16)) # orbit "^2Xon" # speed "^2Rat" # djf "^2Ran"

td2 x $ sound "[^2Fol]*[^d2]" # foo2 (randcat ["0 5", "2 3", "4 7"]) 1 # n "^2Buf" |+ n (fast 3 $ irand 20) # orbit "^2Xon" # speed "^2Rat" # djf "^2Ran"

td2 x $ sound "[^2Fol]*[^d2]" # foo2 (run "<6 24>") 1 # n "^2Buf" |+ n (fast 5 (run 16)) # orbit "^2Xon" # speed "^2Rat" # djf "^2Ran"

td2 x $ sound "[^2Fol]*[^d2]" # foo2 (run "<7 35>") 1 # n "^2Buf" |+ n (irand 77) # orbit "^2Xon" # speed "^2Rat" # djf "^2Ran"

td2 x $ beat "[3,4.2,9,11,14]" 16 $ sound "^2Fol" # n "^2Buf" # orbit "^2Xon" # speed "^2Rat" # djf "^2Ran" -- Beat works with Geikha extension.

td2 x $ beat "[3,4,9,14]" 16 $ sound "^2Fol" # n "^2Buf" |+ n (irand 30) # orbit "^2Xon" # speed "^2Rat" # djf "^2Ran" -- Beat works with Geikha extension.

td2 x $ beat "[3,4,9,14]" 16 $ fast 4 $ sound "^2Fol" # n "^2Buf" |+ n (irand 30) # orbit "^2Xon" # speed "^2Rat" # djf "^2Ran" -- Beat works with Geikha extension.

td2 x $ beat "[1,3,4,8,9,14]" 16 $ fast 4 $ sound "^2Fol" # n "^2Buf" |+ n (irand 30) # orbit "^2Xon" # speed "^2Rat" # djf "^2Ran" -- Beat works with Geikha extension.

td2 x $ slow 2 $ struct "<[t ~ ~ ~]!15 t(<1 2>,32) [t ~ ~ ~]!15 [t t? t? t?] [t ~ ~ ~]!15 [[t t?] t? t? t?]>*[^d2]" $ sound "^2Fol" # n "^2Buf" |+ n "[0 1 2 7 8 9 ]/8 [14 3 2 1 [3 10] 10]/3" # orbit "^2Xon" # speed "^2Rat" # djf "^2Ran" -- try slow down with /2 on 3 items or /3 on 4 items

td2 x $ slow 2 $ struct "<[t ~ ~ ~]!15, t(<1 2>,32), [t ~ ~ ~]!15 [t t? t? t?] [t ~ ~ ~]!15, [[t t?] t? t? t?]>*[^d2]" $ sound "^2Fol" # n "^2Buf" |+ n "[0 1 2 7 8 9 ]/8 [14 3 2 1 [3 10] 10]/4" # gain 0.8 # orbit "^2Xon" # speed "^2Rat" # djf "^2Ran" -- Polyphony with , inside struct

td2 x $ slow 2 $ struct s16d2 $ sound "^2Fol" # n "^2Buf" |+ n "[0 1 2 7 8 9 ]/8 [14 3 2 1 [3 10] 10]/4" # gain 0.8 # orbit "^2Xon" # speed "^2Rat" # djf "^2Ran" -- Polyphony with , inside struct -- Super with d2 of 4 et Buf à 45 & Fol de 4 XXX

td2 x $ slow 2 $ struct s15d2 $ sound "^2Fol" # n "^2Buf" |+ n "[0 2 [4 5], 7 [9 11] 12]/8 [[14 10] 3, [2 [1 0]] [3 10] 10]/4" # gain 0.8 # orbit "^2Xon" # speed "^2Rat" # djf "^2Ran" -- Polyphony with , inside struct -- Super with d2 of 4 et Buf à 45 & Fol de 4 XXX -- ligne 189 triggers lots of lates & skip messages ???

td2 x $ slow 2 $ struct s15d2 $ sound "^2Fol" # n "^2Buf" |+ n "[0 3 [6 9], 12 [15 18]]/8 [4 1, [7 2 5] [10 13]]/4" # gain 0.8 # orbit "^2Xon" # speed "^2Rat" # djf "^2Ran" -- Polyphony with , inside struct -- Super with d2 of 4 et Buf à 45 & Fol de 4 XXX

td2 x  $ slow 2 $ struct s15d2 $ sound "^2Fol" # n "^2Buf" |+ n "[0 2 4 7, [11 13 14] [15 17]]/8 [5 3 [6 9], 12 [10 7 [4 1]]]/4" # gain 0.8 # orbit "^2Xon" # speed "^2Rat" # djf "^2Ran" -- Polyphony with , inside struct -- Super with d2 of 4 et Buf à 45 & Fol de 4 XXX - ligne 191 triggers lots of lates & skip messages ???

td2 x $ slow 8 $ struct s15d2 $ sound "^2Fol" # n "^2Buf" |+ n "[[[0 13 7], [2 11]/3, [4 9 15]/5], [[3 10]/6, 5 14, [6 [8 12]]]/4, [1 6 9 13]/7]/8 [[14 2], [3 5 [10 0]], [[1 11]/2, 6]/3, [[7 4] [13 8]]]/5" # gain 0.7 # orbit "^2Xon" # speed "^2Rat" # djf "^2Ran" -- Polyphony with , inside struct -- Super with d2 of 4 et Buf à 45 & Fol de 4 XXX

td2 x $ slow 2 $ struct s15d2 $ sound "^2Fol" # n "[0 1 2, 7 8 9]/8 [14 3, 2 1 3 10 10]/4" |+ n "^2Buf" # gain 0.8 # orbit "^2Xon" # speed "^2Rat" # djf "^2Ran"

td2 x $ slow 2 $ n "[[0 1, 2 7 8, 9 ]/16 [14, 3 2, 1 [3 10], 10]/4]*[^d2]" # sound "^2Fol" |+ n "^2Buf" # gain 0.8 # orbit "^2Xon" # speed "^2Rat" # djf "^2Ran" -- n

td2 x $ slow 2 $ n "[[0 1, 2 7 8 9 ]/16, [14, 3 2 1 [3 10], 10]/4]*[^d2]" # sound "^2Fol" |+ n "^2Buf" # gain 0.8 # orbit "^2Xon" # speed "^2Rat" # djf "^2Ran" -- n -- Cool with Buf 42 & Fol 2 ou Fol 5 & Buf 29 XXX

td2 x $ slow 2 $ n "[[0 1, 2 7 8 9 ]/16, [14, 3 2 1 [3 10], 10]/4, [12 13 3, 9 10 12 ]/6]*[^d2]" # sound "^2Fol" |+ n "^2Buf" # gain 0.8 # orbit "^2Xon" # speed "^2Rat" # djf "^2Ran" -- to develop

td2 x $ slow 2 $ n "[[1 0, 3 6 5]/16, [12, 4 5 [2 11], 9]/4, [10 11 2, 8 9 11]/6]*[^d2]" # sound "^2Fol" |+ n "^2Buf" # gain 0.8 # orbit "^2Xon" # speed "^2Rat" # djf "^2Ran" -- to develop

td2 x $ slow 2 $ n (fit 1 [7,8,9,10,11,12,13,14,15,16] "[[1 5 7 9 10 0, 3 6 5]/16, [2, 4 5 [2 11],8]/4, [10 11 2, 8 9 11]/6]*[^d2]") # sound "^2Fol" |+ n "^2Buf" # gain 0.8 # orbit "^2Xon" # speed "^2Rat" # djf "^2Ran" -- Try 1

td2 x $ slow 2 $ n "[[0 3 5 7]/16, [2 4 [6 8], 10]/4, [1 11 13]/6]*[^d2]" # sound "^2Fol" |+ n "^2Buf" # gain 0.8 # orbit "^2Xon" # speed "^2Rat" # djf "^2Ran"

td2 x $ slow 2 $ n "[[2 2 2 2]/16, [5 5 5 5]/4, [9 9 9 9]/6]*[^d2]" # sound "^2Fol" |+ n "^2Buf" # gain 0.8 # orbit "^2Xon" # speed "^2Rat" # djf "^2Ran"

td2 x $ slow 2 $ n "[[9 7 5 3 1]/16, [12 10 8 6]/4, [4 2 0]/6]*[^d2]" # sound "^2Fol" |+ n "^2Buf" # gain 0.8 # orbit "^2Xon" # speed "^2Rat" # djf "^2Ran" -- to develop

td2 x $ slow 2 $ n "[0 1 2 7 8 9 ]/8 [14 3 2 1 [3 10] 10]/8*[^d2]" # sound "^2Fol" |+ n "^2Buf" # gain 0.8 # orbit "^2Xon" # speed "^2Rat" # djf "^2Ran" -- n

td2 x $ n "[0 1 2 7 8 9 ]/8 [14 3 2 1 [3 10] 10*3]/8*[^d2]" # sound "^2Fol" |+ n "^2Buf" # gain 0.8 # orbit "^2Xon" # speed "^2Rat" # djf "^2Ran" -- n

td2 x $ slow 2 $ n "[[0 1 2 7 8 9 ]/8 [14 3 2 1 [3 10] 10]/4]*[^d2]" # sound "^2Fol" |+ n "^2Buf" # gain 0.8 # orbit "^2Xon" # speed "^2Rat" # djf "^2Ran" -- n -- very cool with Fol 63 & Buf 27 ou 17

td2 x $ slow 2 $ n "{[0 1 2 7 8 9 ]/8, [14 3 2 1 [3 10], 10]/4}*[^d2]" # sound "^2Fol" |+ n "^2Buf" # gain 0.8 # orbit "^2Xon" # speed "^2Rat" # djf "^2Ran" -- n

td2 x $ jux rev $ arp "<updown thumbup pinkyupdown converge diverge>" $ n "<c4'maj'6 e4'min7'8 g5'maj'5 a5'maj'4>" # sound "^2Fol" |+ n "^2Buf" # orbit "^2Xon" # speed "^2Rat" # djf "^2Ran" -- # room 0.3 # sz 0.7

td2 x $ jux rev $ arp "<updown thumbup pinkyupdown converge diverge>" $ n "<c4'maj'6 e4'min7'8 g5'maj'5 a5'maj'4>" # room 0.3 # sz 0.7 # s "superpiano" # gain 0.8 # orbit "^2Xon"

td2 x $ jux rev $ slow 1 $ arp "<updown thumbup pinkyupdown converge diverge>" $ n "<c4'maj'6 e4'min7'8 g5'maj'5 a5'maj'4>" # room 0.3 # sz 0.7 # s "<superpiano superhoover>" # slide (sine/4) # accelerate (sine/8) # decay (sine/4) # gain 0.8 # orbit "^2Xon"

td2 x $ arp "<updown thumbup pinkyupdown converge diverge>" $ n (slow 1 $ fmap (*0.5) $ "<c4'maj'6 e4'min7'8 g5'maj'5 a5'maj'4>") # s "superhoover" # slide (sine/4) # accelerate (sine/8) # decay (sine/4) # gain 0.8 # orbit "^2Xon"

td2 x $ arp "up" $ n "c'maj'4" # sound "superhoover" # sustain 0.5 # gain 0.8 # orbit "^2Xon"

td2 x $ arp "up" $ n "c'maj'4 e'min" # sound "superhoover" # sustain 0.5 # gain 0.77 # orbit "^2Xon"

td2 x $ arp "pinkyup" $ n "c'maj'4 e'min" # sound "superhoover" # sustain 0.5 # gain 0.77 # orbit "^2Xon"

td2 x $ arp "<pinkyup down thumbup up>" $ n "c'maj'4 e'min" # sound "superhoover" # sustain 0.5 # gain 0.77 # orbit "^2Xon"

td2 x $ jux rev $ arp "<pinkyup down thumbup up>" $ n "<c'maj'4 e4'min'8 f4'maj'4>" # sound "superhoover" # sustain 2 # room 0.3 # sz 0.9 # gain 0.6 # orbit "^2Xon"

td2 x $ chunk 4 (|- note 5) $ jux rev $ arp "<pinkyup down thumbup up>" $ n "<c'maj'4 e4'min'8 f4'maj'4>" # sound "superhoover" # sustain 2 # room 0.3 # sz 0.9 # gain 0.6 # orbit "^2Xon"
-- https://tidalcycles.org/docs/patternlib/howtos/buildarpeggios#arpeggios-from-chords
td2 x $ n "c'maj" # sound "supermandolin" # legato 2 # orbit "^2Xon"

td2 x $ arp "up" $ n "c'maj" # sound "supermandolin" # orbit "^2Xon" # sustain 0.5

td2 x $ arp "up" $ n "c'maj'4" # sound "supermandolin" # sustain 0.5 # orbit "^2Xon"

td2 x $ arp "up" $ n "c'maj'4 e'min" # sound "supermandolin" # sustain 0.5 # orbit "^2Xon"

td2 x $ arp "pinkyup" $ n "c'maj'4 e'min" # sound "supermandolin" # sustain 0.5 # orbit "^2Xon"

td2 x $ arp "<pinkyup down thumbup up>" $ n "c'maj'4 e'min" # sound "supermandolin" # sustain 0.5 # orbit "^2Xon"

td2 x $ jux rev $ arp "<pinkyup down thumbup up>" $ n "<c'maj'4 e4'min'8 f4'maj'4>" # sound "supermandolin" # sustain 2 # room 0.3 # sz 0.9 # orbit "^2Xon"

td2 x $ chunk 4 (|- note 5) $ jux rev $ arp "<pinkyup down thumbup up>" $ n "<c'maj'4 e4'min'8 f4'maj'4>" # sound "supermandolin" # sustain 2 # room 0.3 # sz 0.9 # orbit "^2Xon"
-- Variation 1: Aube Gymnopédique - La douceur du réveil
td2 x $ slow 2 $ sometimesBy 0.2 (rev) $ arp "<converge diverge pinkyup thumbdown>" $ n (slow 3 $ "<e3'min7 a3'min7 d3'min7 g3'maj7>") # s "superhoover" # sustain 2 # room 0.8  # size 0.9 # gain 0.7 # orbit "^2Xon"
-- Variation 2: Le Baiser de l'Aube - Plus expressif
td2 x $ jux (iter 4) $ striate' 8 (1/4) $ every 3 (|+ n 2) $ arp "<up down converge diverge>" $ n "<e3'min9 a3'min9 d3'min9 g3'maj9>" # s "superpiano" # sustain 3 # room 0.8 # size 0.9 # lpf (slow 8 $ range 400 2000 sine) # gain 0.65 # orbit "^2Xon"
-- Variation 3: Solitude du Matin - Mélancolique et flottante
td2 x $ stack [slow 2 $ arp "pinkyup" $ n "<e3'min7 a3'min7 d3'min7 g3'maj7>" # s "superhoover" # gain 0.7 # room 0.7, slow 4 $ n (scale "minPent" $ scramble 8 $ run 8) # s "superhoover" # sustain 4 # lpf 1000 # gain 0.5] # room 0.8 # size 0.9 # orbit "^2Xon"
-- Variation 4: Gymnopédie Explosive - Contraste entre calme et intensité
td2 x $ whenmod 8 6 (|+ n 12) $ every 4 (fast 2) $ every 3 (stut 4 0.5 0.2) $ arp "<diverge updown pinkyupdown thumbup>" $ n "<e3'min7 a3'min7 c4'maj7 g3'maj7>" # s "superhoover" # sustain (slow 8 $ range 0.5 2 sine) # room 0.6 # size 0.8 # lpf (slow 4 $ range 300 3000 sine) # gain 0.6 # orbit "^2Xon"
-- Variation 8: Solitude Impressionniste - Texture inspirée de Satie
td2 x $ degradeBy 0.2 $ chunk 4 (|+ n 5) $ striate' 16 (1/4) $ arp "<converge diverge pinkyup thumbdown>" $ n "<e3'min11 a3'min11 c4'maj9 g3'maj9>" # s "superhoover" # sustain 2 # cutoff (slow 12 $ range 400 3000 sine) # resonance 0.2 # room 0.75 # size 0.9 # gain 0.4 # orbit "^2Xon"

td2 x $ stack [slow 2 $ arp "pinkyup" $ n "<e3'min7 a3'min7 d3'min7 g3'maj7>" # s "skick gabkick" # gain 0.7 # room 0.7, slow 4 $ n (scale "minPent" $ scramble 8 $ run 8) # s "skick gabkick" # sustain 4 # lpf 1000 # gain 0.5] # room 0.8 # size 0.9 # orbit "^2Xon"

td2 x $ degradeBy 0.2 $ chunk 4 (|+ n 5) $ striate' 16 (1/4) $ arp "<converge diverge pinkyup thumbdown>" $ n "<e3'min11 a3'min11 c4'maj9 g3'maj9>" # s "skick gabkick" # sustain 1 # cutoff (slow 12 $ range 400 3000 sine) # resonance 0.2 # room 0.75 # size 0.9 # gain 0.4 # orbit "^2Xon"
-- Both codes below from Eris Fairbanks (she/her) on Discord in patterns-snippets — 04/03/2025 22:21 -- resetCycles
do {resetCycles; d2 $ stutWith 4 (3/16) ((* speed 1.01).(* gain 0.78)) $ mask "{t f t t f t f t t f}%16" $ n "{0 0 3 5 0 0 7 0 8 7 0}%16" + n "{0 -12 12 0 0 12 0 -12}%8" # s "plaits" # engine 8 # timbre 0.9 # harm 0.3 # morph 0.99 # room 0.2 # sustain ("{4 2 1 4 2 4 1}%16" * 0.3) # gain 0.77}

do {resetCycles; d2 $ n (toScale [0,2,3,5,7,8,11] ("{7 0 7 0 0 7 0 7 0}%16") + "[0,16,<7 5 7 4 3>]") + n "{-12 -12 -12 [0 12]}%4" # s "plaits" # engine "<0 3>/4" # timbre (slow 8 (sine * 0.2)) # legato (range 2 6 $ slow 4 $ saw) * legato "{1 0.5 0.8 0.25 0.3}%16" # morph (range 0.1 0.5 $ slow 8 $ sine) # harm "<0 0.96 0.25 1 0.5>/4" # room 0.3 # size 0.93 # gain 0.8}

td2 x $ stack [slow 2 $ arp "pinkyup" $ n "<e3'min7 a3'min7 d3'min7 g3'maj7>" # s "supervibe" # gain 0.7 # room 0.7, slow 4 $ n (scale "minPent" $ scramble 8 $ run 8) # s "supervibe" # sustain 4 # lpf 1000 # gain 0.5] # room 0.8 # size 0.9 # orbit "^2Xon"

td2 x $ stack [slow 2 $ arp "pinkyup" $ n "<e3'min7 a3'min7 d3'min7 g3'maj7>" # s "vibsawpluck" # gain 0.7 # room 0.7, slow 4 $ n (scale "minPent" $ scramble 8 $ run 8) # s "vibsawpluck" # sustain 4 # lpf 1000 # gain 0.5] # room 0.8 # size 0.9 # orbit "^2Xon"

td2 x $ stack [slow 2 $ arp "pinkyup" $ n "<e3'min7 a3'min7 d3'min7 g3'maj7>" # s "[<donk, wub sinosc acid, ultrasaw futuresaw>]" # gain 0.7 # room 0.7, slow 4 $ n (scale "minPent" $ scramble 8 $ run 8) # s "[wob sinosc futuresaw, acid]" # sustain 4 # lpf 1000 # gain 0.5] # room 0.8 # size 0.9 # orbit "^2Xon"

td2 x $ stack [slow 2 $ arp "pinkyup" $ n "<e3'min7 a3'min7 d3'min7 g3'maj7>" # s "[<pbass, bmoog sinosc acid, ultrasaw fmtribe>]" # gain 0.7 # room 0.7, slow 4 $ n (scale "minPent" $ scramble 8 $ run 8) # s "[cs80leadClick sawpluck rhodes, acid]" # sustain 4 # lpf 1000 # gain 0.5] # room 0.8 # size 0.9 # orbit "^2Xon"

td2 x $ stack [slow 2 $ arp "pinkyup" $ n "<e3'min7 a3'min7 d3'min7 g3'maj7>" # s "bmoog super303" # gain 0.7 # room 0.7, slow 4 $ n (scale "minPent" $ scramble 8 $ run 8) # s "super303 bmoog" # sustain 4 # lpf 1000 # gain 0.5] # room 0.8 # size 0.9 # orbit "^2Xon"



d2 silence -- silence will stop your pattern next cycle

do {d2 $ ampbus 2 $ sine; d2 silence}

xfadeIn 2 4 silence -- perform a crossfade transition to silence in 4 cycles



-- Find & Replace
-- d2
-- "^2
-- also xfadeIn & orbit Also XXX

-- ^d2 -- pas necessaire



osc(20, 0.1, 0.8) // Fréquence et vitesse des oscillations
  .pixelate(30, 20) // Ajoute un effet de pixellisation
  .modulate(osc(4), 0.2) // Modulation avec une autre oscillation
  .rotate(() => Math.sin(time) * 0.5) // Rotation dynamique en fonction du temps
  .out() // Envoie à la sortie
